X: 40679
T: Topiarist, The
R: jig
M: 6/8
K: Amajor
ACD EF/G/A|BeB cAF|AGF ECE|FB,B, GAB|
ACD EF/G/A|BeB cAF|DAF EBA|GAB B2G:|
|:FCD FCD|AGF A2B|cAF cAF|EEF GEB|
[1FCD FCD|AGF A2B|cdc BAB|cAB A2G:|
[2cdc BAB|cAB AGF|~D3 DAc|B6||

